; LightBurn 1.5.01
; GRBL device profile, absolute coords
; Bounds: X365.14 Y42.5 to X543.9 Y547.5
G00 G17 G40 G21 G54
G90
M4
; Scan @ 19999.98 mm/min, 80% power
M9
G0 X100Y42.5
; Layer C00
G91
G1 X1F10000S0
G1 X0.995S800
G1 X0.96S0
G1 X3.668S800
G1 X1S0
G1 X4.264Y5
G1 X-1
G1 X-6.634S800
G1 X-0.535S0
G1 X-0.758S800
G1 X-1.175S0
G1 X-0.765S800
G1 X-2.886S0
G1 X-2.553S800
G1 X-1S0
G1 X-19.127Y5
G1 X1
G1 X1.595S800
G1 X0.934S0
G1 X9.937S800
G1 X2.6S0
G1 X2.041S800
G1 X9.741S0
G1 X16.278S800
G1 X1S0
G1 X5.272Y5
G1 X-1
G1 X-22.318S800
G1 X-12.255S0
G1 X-2.791S800
G1 X-1.98S0
G1 X-7.786S800
G1 X-5.4S0
G1 X-1.28S800
G1 X-1S0
G1 X-7.11Y5
G1 X1
G1 X1.073S800
G1 X11.876S0
G1 X2.03S800
G1 X21.455S0
G1 X32.583S800
G1 X1S0
G1 X8.082Y5
G1 X-1
G1 X-38.023S800
G1 X-32.086S0
G1 X-0.854S800
G1 X-1S0
G1 X-45.978Y5
G1 X1
G1 X2.818S800
G1 X12.092S0
G1 X0.362S800
G1 X0.045S0
G1 X0.288S800
G1 X0.022S0
G1 X0.379S800
G1 X27.329S0
G1 X0.242S800
G1 X0.212S0
G1 X0.385S800
G1 X0.209S0
G1 X0.239S800
G1 X0.02S0
G1 X0.246S800
G1 X32.075S0
G1 X2.183S800
G1 X0.17
G1 X28.585
G1 X0.009S0
G1 X0.604S800
G1 X1.964S0
G1 X0.231S800
G1 X0.006S0
G1 X15.333S800
G1 X25.005S0
G1 X2.41S800
G1 X1S0
G1 X-31.07Y5
G1 X-1
G1 X-12.108S800
G1 X-67.015S0
G1 X-13.625S800
G1 X-1S0
G1 X-29.94Y10
G1 X1
G1 X0.646S800
G1 X2.383S0
G1 X0.645S800
G1 X1.636S0
G1 X5.476S800
G1 X9.787S0
G1 X2.502S800
G1 X10.947S0
G1 X6.196S800
G1 X4.27S0
G1 X5.018S800
G1 X3.326S0
G1 X2.945S800
G1 X9.491S0
G1 X5.346S800
G1 X4.115S0
G1 X5.308S800
G1 X9.49S0
G1 X5.167S800
G1 X3.783S0
G1 X1.306S800
G1 X9.98S0
G1 X5.177S800
G1 X4.879S0
G1 X2.904S800
G1 X12.462S0
G1 X4.945S800
G1 X2.095S0
G1 X5.366S800
G1 X4.753S0
G1 X4.907S800
G1 X1S0
G1 X-0.068Y5
G1 X-1
G1 X-4.839S800
G1 X-3.928S0
G1 X-4.69S800
G1 X-3.621S0
G1 X-4.853S800
G1 X-12.553S0
G1 X-2.783S800
G1 X-2.488S0
G1 X-5.316S800
G1 X-15.028S0
G1 X-5.368S800
G1 X-13.785S0
G1 X-5.411S800
G1 X-3.876S0
G1 X-5.149S800
G1 X-5.954S0
G1 X-2.726S800
G1 X-5.385S0
G1 X-4.874S800
G1 X-4.406S0
G1 X-2.366S800
G1 X-1.695S0
G1 X-6.504S800
G1 X-6.574S0
G1 X-2.369S800
G1 X-7.861S0
G1 X-2.396S800
G1 X-1.981S0
G1 X-5.062S800
G1 X-1S0
G1 X-2.025Y5
G1 X1
G1 X5.127S800
G1 X5.91S0
G1 X2.515S800
G1 X5.776S0
G1 X2.368S800
G1 X1.917S0
G1 X6.55S800
G1 X6.307S0
G1 X2.361S800
G1 X4.411S0
G1 X4.877S800
G1 X7.33S0
G1 X2.614S800
G1 X2.266S0
G1 X5.051S800
G1 X5.913S0
G1 X5.386S800
G1 X13.892S0
G1 X5.425S800
G1 X14.869S0
G1 X5.487S800
G1 X2.303S0
G1 X2.761S800
G1 X12.511S0
G1 X4.844S800
G1 X2.151S0
G1 X4.985S800
G1 X5.12S0
G1 X4.837S800
G1 X1S0
G1 X0.059Y5
G1 X-1
G1 X-4.896S800
G1 X-5.154S0
G1 X-5.204S800
G1 X-2.894S0
G1 X-5.214S800
G1 X-9.566S0
G1 X-3.125S800
G1 X-5.545S0
G1 X-5.609S800
G1 X-11.812S0
G1 X-0.037S800
G1 X-2.819S0
G1 X-5.293S800
G1 X-10.15S0
G1 X-5.167S800
G1 X-9.936S0
G1 X-6.173S800
G1 X-9.151S0
G1 X-4.995S800
G1 X-4.293S0
G1 X-2.478S800
G1 X-10.677S0
G1 X-6.459S800
G1 X-3.549S0
G1 X-2.768S800
G1 X-9.702S0
G1 X-5.343S800
G1 X-1S0
G1 X37.412Y10
G1 X1
G1 X15.692S800
G1 X50.901S0
G1 X17.136S800
G1 X1S0
G1 X31.914Y5
G1 X-1
G1 X-3.425S800
G1 X-20.134S0
G1 X-6.018S800
G1 X-9.763S0
G1 X-1.732S800
G1 X-15.474S0
G1 X-1.251S800
G1 X-1.256S0
G1 X-1.725S800
G1 X-3.477S0
G1 X-2.162S800
G1 X-8.859S0
G1 X-2.138S800
G1 X-5.616S0
G1 X-1.635S800
G1 X-3.732S0
G1 X-1.725S800
G1 X-10.011S0
G1 X-1.726S800
G1 X-5.761S0
G1 X-1.727S800
G1 X-36.688S0
G1 X-2.841S800
G1 X-1S0
G1 X22.427Y5
G1 X1
G1 X1.732S800
G1 X2.481S0
G1 X1.731S800
G1 X3.462S0
G1 X1.74S800
G1 X1.609S0
G1 X1.79S800
G1 X2.724S0
G1 X1.822S800
G1 X1.931S0
G1 X1.726S800
G1 X2.038S0
G1 X1.726S800
G1 X2.022S0
G1 X1.726S800
G1 X1.987S0
G1 X1.726S800
G1 X2.486S0
G1 X1.725S800
G1 X1.634S0
G1 X1.905S800
G1 X1.734S0
G1 X2.004S800
G1 X1.808S0
G1 X1.883S800
G1 X1.72S0
G1 X1.928S800
G1 X5.469S0
G1 X1.878S800
G1 X1.714S0
G1 X1.933S800
G1 X1.792S0
G1 X2.29S800
G1 X1.797S0
G1 X2S800
G1 X5.373S0
G1 X1.801S800
G1 X2.225S0
G1 X1.8S800
G1 X2.292S0
G1 X1.736S800
G1 X6.033S0
G1 X1.75S800
G1 X1.335S0
G1 X1.822S800
G1 X3.689S0
G1 X1.166S800
G1 X1S0
G1 X-47.852Y130
G1 X-1
G1 X-1.834S800
G1 X-1S0
G1 X-6.186Y5
G1 X1
G1 X2.738S800
G1 X2.55S0
G1 X0.484S800
G1 X0.566S0
G1 X6.685S800
G1 X1S0
G1 X8.255Y5
G1 X-1
G1 X-14.26S800
G1 X-1.408S0
G1 X-0.434S800
G1 X-5.506S0
G1 X-3.493S800
G1 X-0.191S0
G1 X-1.537S800
G1 X-4.916S0
G1 X-5.694S800
G1 X-0.874S0
G1 X-0.689S800
G1 X-1S0
G1 X-5.317Y5
G1 X1
G1 X1.148S800
G1 X3.576S0
G1 X8.136S800
G1 X3.309S0
G1 X2.302S800
G1 X11.168S0
G1 X19.687S800
G1 X1S0
G1 X6.791Y5
G1 X-1
G1 X-28.716S800
G1 X-19.975S0
G1 X-4.292S800
G1 X-8.07S0
G1 X-2.089S800
G1 X-1S0
G1 X-5.659Y5
G1 X1
G1 X0.385S800
G1 X0.336S0
G1 X0.264S800
G1 X12.613S0
G1 X1.29S800
G1 X24.121S0
G1 X0.678S800
G1 X3.417S0
G1 X32.766S800
G1 X1S0
G1 X50.367Y5
G1 X-1
G1 X-0.767S800
G1 X-39.613S0
G1 X-11.537S800
G1 X-0.011S0
G1 X-0.375S800
G1 X-1.11S0
G1 X-0.338S800
G1 X-0.004S0
G1 X-32.401S800
G1 X-33.948S0
G1 X-1.938S800
G1 X-1.149S0
G1 X-10.572S800
G1 X-4.046S0
G1 X-0.105S800
G1 X-1.656S0
G1 X-0.595S800
G1 X-0.314S0
G1 X-0.291S800
G1 X-0.102S0
G1 X-0.362S800
G1 X-29.669S0
G1 X-0.904S800
G1 X-1S0
G1 X24.851Y5
G1 X1
G1 X7.306S800
G1 X37.738S0
G1 X0.324S800
G1 X0.498S0
G1 X0.861S800
G1 X0.376S0
G1 X0.796S800
G1 X4.693S0
G1 X1.129S800
G1 X0.116S0
G1 X0.467S800
G1 X1.105S0
G1 X0.32S800
G1 X28.083S0
G1 X0.392S800
G1 X0.011S0
G1 X0.378S800
G1 X0.49S0
G1 X0.605S800
G1 X0.004S0
G1 X0.358S800
G1 X0.22
G1 X0.006S0
G1 X0.308S800
G1 X0.009S0
G1 X0.321S800
G1 X4.107
G1 X0.553
G1 X3.938S0
G1 X0.806S800
G1 X0.532
G1 X0.008S0
G1 X0.238S800
G1 X0.163S0
G1 X0.272S800
G1 X0.01S0
G1 X1.749S800
G1 X0.028S0
G1 X0.43S800
G1 X1.738S0
G1 X0.242S800
G1 X0.004S0
G1 X1.082S800
G1 X0.009S0
G1 X0.413S800
G1 X17.549
G1 X1S0
G1 X20.329Y10
G1 X-1
G1 X-13.881S800
G1 X-3.267S0
G1 X-5.087S800
G1 X-12.329S0
G1 X-3.046S800
G1 X-7.008S0
G1 X-6.784S800
G1 X-2.613S0
G1 X-5.295S800
G1 X-5.473S0
G1 X-6.475S800
G1 X-2.454S0
G1 X-6.708S800
G1 X-5.485S0
G1 X-5.566S800
G1 X-10.652S0
G1 X-3.214S800
G1 X-2.407S0
G1 X-5.175S800
G1 X-4.114S0
G1 X-4.589S800
G1 X-12.553S0
G1 X-2.66S800
G1 X-10.469S0
G1 X-3.955S800
G1 X-1.817S0
G1 X-0.444S800
G1 X-0.95S0
G1 X-0.516S800
G1 X-1.009S0
G1 X-0.54S800
G1 X-0.93S0
G1 X-0.444S800
G1 X-1S0
G1 X4.718Y5
G1 X1
G1 X5.067S800
G1 X0.358S0
G1 X2.405S800
G1 X8.656S0
G1 X2.401S800
G1 X8.368S0
G1 X8.772S800
G1 X4.373S0
G1 X4.908S800
G1 X4.578S0
G1 X2.795S800
G1 X7.386S0
G1 X5.225S800
G1 X3.591S0
G1 X5.356S800
G1 X12.825S0
G1 X5.272S800
G1 X15.113S0
G1 X5.205S800
G1 X3.098S0
G1 X2.817S800
G1 X12.527S0
G1 X4.879S800
G1 X2.268S0
G1 X4.924S800
G1 X5.038S0
G1 X4.856S800
G1 X1S0
G1 X-0.025Y5
G1 X-1
G1 X-13.183S800
G1 X-3.9S0
G1 X-4.831S800
G1 X-12.575S0
G1 X-2.757S800
G1 X-2.159S0
G1 X-5.437S800
G1 X-14.922S0
G1 X-5.436S800
G1 X-14.162S0
G1 X-5.432S800
G1 X-4.916S0
G1 X-5.076S800
G1 X-3.752S0
G1 X-2.639S800
G1 X-6.568S0
G1 X-4.865S800
G1 X-4.422S0
G1 X-2.35S800
G1 X-4.496S0
G1 X-6.5S800
G1 X-3.792S0
G1 X-2.355S800
G1 X-6.627S0
G1 X-2.45S800
G1 X-4.352S0
G1 X-5.089S800
G1 X-1S0
G1 X-2.057Y5
G1 X1
G1 X5.253S800
G1 X8.176S0
G1 X2.658S800
G1 X4.46S0
G1 X8.179S800
G1 X8.96S0
G1 X2.414S800
G1 X4.358S0
G1 X4.93S800
G1 X8.439S0
G1 X2.592S800
G1 X0.038S0
G1 X5.029S800
G1 X7.993S0
G1 X5.24S800
G1 X12.392S0
G1 X5.333S800
G1 X14.794S0
G1 X5.531S800
G1 X3.595S0
G1 X2.844S800
G1 X11.53S0
G1 X4.945S800
G1 X1.862S0
G1 X5.046S800
G1 X5.678S0
G1 X4.864S800
G1 X1S0
G1 X0.162Y5
G1 X-1
G1 X-12.955S800
G1 X-7.842S0
G1 X-12.78S800
G1 X-11.75S0
G1 X-13.537S800
G1 X-6.601S0
G1 X-13.76S800
G1 X-14.412S0
G1 X-3.999S800
G1 X-10.108S0
G1 X-5.255S800
G1 X-4.035S0
G1 X-2.737S800
G1 X-13.099S0
G1 X-3.976S800
G1 X-2.092S0
G1 X-3.256S800
G1 X-11.565S0
G1 X-5.689S800
G1 X-1S0
G1 X65.439Y5
G1 X1
G1 X31.098S800
G1 X1S0
G1 X47.092Y5
G1 X-1
G1 X-6.34S800
G1 X-41.943S0
G1 X-1.726S800
G1 X-27.705S0
G1 X-1.725S800
G1 X-6.253S0
G1 X-1.727S800
G1 X-34.038S0
G1 X-5.432S800
G1 X-1S0
G1 X-25.583Y5
G1 X1
G1 X0.328S800
G1 X36.287S0
G1 X1.729S800
G1 X2.486S0
G1 X1.729S800
G1 X1.468S0
G1 X0.319S800
G1 X1.178S0
G1 X2.257S800
G1 X1.76S0
G1 X1.828S800
G1 X2.489S0
G1 X1.886S800
G1 X1.948S0
G1 X1.726S800
G1 X2.048S0
G1 X1.726S800
G1 X2.032S0
G1 X1.726S800
G1 X2.003S0
G1 X1.729S800
G1 X2.467S0
G1 X1.74S800
G1 X5.843S0
G1 X1.774S800
G1 X1.321S0
G1 X6.056S800
G1 X4.951S0
G1 X6.058S800
G1 X1.486S0
G1 X1.734S800
G1 X2.858S0
G1 X1.762S800
G1 X5.085S0
G1 X1.667S800
G1 X2.573S0
G1 X1.753S800
G1 X2.2S0
G1 X1.732S800
G1 X1.875S0
G1 X1.656S800
G1 X2.441S0
G1 X1.712S800
G1 X2.333S0
G1 X5.456S800
G1 X37.137S0
G1 X0.41S800
G1 X1S0
G1 X-134.826Y5
G1 X-1
G1 X-2.729S800
G1 X-0.629S0
G1 X-1.607S800
G1 X-1S0
G1 X50.108Y130
G1 X1
G1 X0.922S800
G1 X1.758S0
G1 X5.425S800
G1 X1S0
G1 X3.601Y5
G1 X-1
G1 X-6.859S800
G1 X-1.536S0
G1 X-0.767S800
G1 X-5.169S0
G1 X-2.872S800
G1 X-1S0
G1 X-19.259Y5
G1 X1
G1 X1.644S800
G1 X1.459S0
G1 X9.325S800
G1 X3.589S0
G1 X2.574S800
G1 X9.495S0
G1 X17.325S800
G1 X1S0
G1 X5.355Y5
G1 X-1
G1 X-24.057S800
G1 X-13.283S0
G1 X-1.679S800
G1 X-4.392S0
G1 X-5.728S800
G1 X-7.182S0
G1 X-1.097S800
G1 X-1S0
G1 X-5.903Y5
G1 X1
G1 X1.947S800
G1 X10.914S0
G1 X2.434S800
G1 X22.155S0
G1 X2.985S800
G1 X1.035S0
G1 X29.912S800
G1 X1S0
G1 X9.577Y5
G1 X-1
G1 X-9.227S800
G1 X-0.199
G1 X-0.009S0
G1 X-31.362S800
G1 X-32.57S0
G1 X-2.005S800
G1 X-1S0
G1 X-39.241Y5
G1 X1
G1 X4.036S800
G1 X3.397S0
G1 X1.207S800
G1 X33.214S0
G1 X0.306S800
G1 X1.196S0
G1 X0.847S800
G1 X27.353S0
G1 X0.398S800
G1 X0.209S0
G1 X0.055S800
G1 X0.24
G1 X2.672S0
G1 X0.521S800
G1 X4.953
G1 X0.033
G1 X5.275
G1 X0.006S0
G1 X0.75S800
G1 X1.451S0
G1 X0.544S800
G1 X0.415S0
G1 X0.24S800
G1 X0.008S0
G1 X13.569S800
G1 X0.011S0
G1 X0.303S800
G1 X3.138S0
G1 X0.362S800
G1 X0.015S0
G1 X16.847S800
G1 X16.371S0
G1 X3.464S800
G1 X1S0
G1 X-34.941Y5
G1 X-1
G1 X-20.773S800
G1 X-31.571S0
G1 X-22.672S800
G1 X-1S0
G1 X-37.36Y5
G1 X1
G1 X1.111S800
G1 X79.622S0
G1 X5.616S800
G1 X14.147S0
G1 X5.843S800
G1 X1S0
G1 X49.608Y5
G1 X-1
G1 X-4.885S800
G1 X-5.103S0
G1 X-5.155S800
G1 X-1.964S0
G1 X-4.915S800
G1 X-12.49S0
G1 X-2.869S800
G1 X-4.136S0
G1 X-5.148S800
G1 X-15.127S0
G1 X-5.187S800
G1 X-10.964S0
G1 X-5.288S800
G1 X-3.779S0
G1 X-5.302S800
G1 X-8.806S0
G1 X-2.877S800
G1 X-3.754S0
G1 X-4.97S800
G1 X-4.315S0
G1 X-7.037S800
G1 X-10.105S0
G1 X-2.457S800
G1 X-9.42S0
G1 X-6.254S800
G1 X-1S0
G1 X-1.981Y5
G1 X1
G1 X5.065S800
G1 X2.779S0
G1 X2.406S800
G1 X7.456S0
G1 X2.361S800
G1 X5.657S0
G1 X6.489S800
G1 X2.633S0
G1 X2.358S800
G1 X4.417S0
G1 X4.866S800
G1 X5.782S0
G1 X2.694S800
G1 X5.227S0
G1 X5.119S800
G1 X4.151S0
G1 X5.43S800
G1 X14.03S0
G1 X5.397S800
G1 X14.99S0
G1 X5.361S800
G1 X2.315S0
G1 X2.771S800
G1 X12.562S0
G1 X4.843S800
G1 X5.066S0
G1 X5.49S800
G1 X1.688S0
G1 X4.834S800
G1 X1S0
G1 X0.01Y5
G1 X-1
G1 X-4.844S800
G1 X-5.54S0
G1 X-4.96S800
G1 X-1.798S0
G1 X-4.866S800
G1 X-12.346S0
G1 X-2.771S800
G1 X-2.568S0
G1 X-5.501S800
G1 X-14.848S0
G1 X-5.4S800
G1 X-13.567S0
G1 X-5.348S800
G1 X-6.516S0
G1 X-5.04S800
G1 X-1.524S0
G1 X-2.603S800
G1 X-7.705S0
G1 X-4.89S800
G1 X-4.398S0
G1 X-2.374S800
G1 X-7.202S0
G1 X-6.583S800
G1 X-0.98S0
G1 X-2.376S800
G1 X-5.344S0
G1 X-14.39S800
G1 X-1S0
G1 X-2.103Y5
G1 X1
G1 X5.41S800
G1 X10.402S0
G1 X2.887S800
G1 X3.071S0
G1 X5.619S800
G1 X11.505S0
G1 X2.541S800
G1 X4.23S0
G1 X5.058S800
G1 X9.486S0
G1 X5.441S800
G1 X11.152S0
G1 X5.215S800
G1 X8.313S0
G1 X5.382S800
G1 X3.497S0
G1 X1.407S800
G1 X9.568S0
G1 X5.77S800
G1 X7.019S0
G1 X3.541S800
G1 X7.595S0
G1 X5.622S800
G1 X3.917S0
G1 X5.483S800
G1 X4.41S0
G1 X4.927S800
G1 X1S0
G1 X-28.731Y10
G1 X-1
G1 X-11.558S800
G1 X-78.514S0
G1 X-10.167S800
G1 X-1S0
G1 X-29.957Y5
G1 X1
G1 X1.886S800
G1 X40.124S0
G1 X1.664S800
G1 X0.973S0
G1 X1.727S800
G1 X1.965S0
G1 X1.725S800
G1 X2.058S0
G1 X1.726S800
G1 X2.043S0
G1 X1.726S800
G1 X2.395S0
G1 X3.815S800
G1 X0.02S0
G1 X1.725S800
G1 X2.077S0
G1 X4.905S800
G1 X2.625S0
G1 X4.806S800
G1 X6.202S0
G1 X4.816S800
G1 X2.144S0
G1 X5.729S800
G1 X6.587S0
G1 X4.165S800
G1 X2.021S0
G1 X3.704S800
G1 X2.486S0
G1 X2.814S800
G1 X3.377S0
G1 X1.901S800
G1 X3.075S0
G1 X1.724S800
G1 X25.716S0
G1 X2.311S800
G1 X1S0
G1 X-28.181Y5
G1 X-1
G1 X-2.136S800
G1 X-2.682S0
G1 X-2.097S800
G1 X-1.828S0
G1 X-2.054S800
G1 X-1.391S0
G1 X-1.947S800
G1 X-2.139S0
G1 X-2.904S800
G1 X-1.564S0
G1 X-4.762S800
G1 X-6.58S0
G1 X-3.483S800
G1 X-0.345S0
G1 X-1.602S800
G1 X-2.527S0
G1 X-4.023S800
G1 X-6.969S0
G1 X-4.039S800
G1 X-3.272S0
G1 X-4.245S800
G1 X-2.284S0
G1 X-1.725S800
G1 X-2.486S0
G1 X-1.726S800
G1 X-1.979S0
G1 X-1.726S800
G1 X-2.017S0
G1 X-1.726S800
G1 X-2.033S0
G1 X-1.726S800
G1 X-1.923S0
G1 X-2.461S800
G1 X-1.581S0
G1 X-2.06S800
G1 X-1.833S0
G1 X-1.728S800
G1 X-3.476S0
G1 X-1.756S800
G1 X-2.392S0
G1 X-1.785S800
G1 X-1S0
G90
M9
G1 S0
M5
G90
M2
